X:636
T:The Sligo Lasses
N:anon.
O:Ireland
B:Francis O'Neill: "The Dance Music of Ireland" (1907) no. 636
R:Reel
Z:Transcribed by Frank Nordberg - http://www.musicaviva.com
N:Music Aviva - The Internet center for free sheet music downloads
M:C|
L:1/8
K:G
G2(BG) DGBG|D2(3(FED) dAFA|G2BG DGef|[1(3(gfe) dc BGA||g2bg dgbg|
fgag fdef|g2bg dgbg|dega bgg2|dgbg dgbg|fgag fdef|gaba gedc|(3(Bcd) AG FD
EF|]
